X:244
T:The Reprobate
S:Ian Robb - English Concertina International
R:reel
M:4/4
L:1/8
K:A
aecA FAEA | A2cA BABc | dafd caec | B2Bc defg |
aecA FAEA | BAcA BABc |  dafd caec | BEGB cAA2 ::
a2ga faec | ABBA BAFD | CEAc ecAc | dBBA Befg |
a2ga faec | ABBA BAFD | CEAc ecAc | dBGB cAA2 :|
